;FLAVOR:Marlin
;TIME:4794
;Filament used: 4.30297m
;Layer height: 0.28
;MINX:73.363
;MINY:60.158
;MINZ:0.28
;MAXX:153.363
;MAXY:137.158
;MAXZ:22.96
;Generated with Cura_SteamEngine 5.3.0
M140 S50
M105
M190 S50
M104 S200
M105
M109 S200
M82 ;absolute extrusion mode
; Ender 3 Custom Start G-code
G92 E0 ; Reset Extruder
G28 ; Home all axes
G1 Z2.0 F3000 ; Move Z Axis up little to prevent scratching of Heat Bed
G1 X0.1 Y20 Z0.3 F5000.0 ; Move to start position
G1 X0.1 Y200.0 Z0.3 F1500.0 E15 ; Draw the first line
G1 X0.4 Y200.0 Z0.3 F5000.0 ; Move to side a little
G1 X0.4 Y20 Z0.3 F1500.0 E30 ; Draw the second line
G92 E0 ; Reset Extruder
G1 Z2.0 F3000 ; Move Z Axis up little to prevent scratching of Heat Bed
G1 X5 Y20 Z0.3 F5000.0 ; Move over to prevent blob squish
G92 E0
G92 E0
G1 F2700 E-5
;LAYER_COUNT:82
;LAYER:0
M107
G0 F6000 X76.729 Y64.414 Z0.28
;TYPE:SKIRT
G1 F2700 E0
G1 F1200 X77.356 Y63.764 E0.04205
G1 X78.038 Y63.172 E0.08411
G1 X78.77 Y62.643 E0.12616
G1 X79.546 Y62.181 E0.16821
G1 X80.36 Y61.79 E0.21026
G1 X81.205 Y61.471 E0.25232
G1 X82.075 Y61.229 E0.29437
G1 X82.963 Y61.065 E0.33642
G1 X84.086 Y60.971 E0.38889
G1 X84.693 Y60.958 E0.41716
G1 X141.802 Y60.959 E3.0764
G1 X142.5 Y60.969 E3.1089
G1 X143.402 Y61.022 E3.15097
G1 X144.295 Y61.154 E3.19301
G1 X145.173 Y61.365 E3.23505
G1 X146.029 Y61.653 E3.27711
G1 X146.856 Y62.015 E3.31915
G1 X147.648 Y62.45 E3.36122
G1 X148.399 Y62.952 E3.40328
G1 X149.102 Y63.519 E3.44534
G1 X149.752 Y64.146 E3.48739
G1 X150.344 Y64.828 E3.52944
G1 X150.874 Y65.559 E3.57149
G1 X151.336 Y66.335 E3.61354
G1 X151.729 Y67.148 E3.65559
G1 X152.047 Y67.993 E3.69763
G1 X152.29 Y68.863 E3.73969
G1 X152.455 Y69.751 E3.78175
G1 X152.55 Y70.881 E3.83455
G1 X152.563 Y71.488 E3.86282
G1 X152.562 Y100.574 E5.21719
G1 X152.552 Y101.291 E5.25058
G1 X152.505 Y102.142 E5.29026
G1 X152.332 Y103.842 E5.36983
G1 X152.115 Y106.396 E5.48918
G1 X151.973 Y108.923 E5.60704
G1 X151.902 Y111.454 E5.72494
G1 X151.904 Y113.989 E5.84298
G1 X151.977 Y116.542 E5.96191
G1 X152.12 Y119.052 E6.07897
G1 X152.338 Y121.607 E6.19837
G1 X152.495 Y123.068 E6.2668
G1 X152.548 Y123.849 E6.30325
G1 X152.563 Y124.488 E6.33301
G1 X152.553 Y126.275 E6.41622
G1 X152.502 Y127.177 E6.45829
G1 X152.371 Y128.071 E6.50036
G1 X152.162 Y128.949 E6.54239
G1 X151.876 Y129.806 E6.58446
G1 X151.515 Y130.634 E6.62652
G1 X151.083 Y131.426 E6.66853
G1 X150.582 Y132.178 E6.7106
G1 X150.016 Y132.882 E6.75266
G1 X149.391 Y133.533 E6.79469
G1 X148.71 Y134.127 E6.83676
G1 X147.979 Y134.658 E6.87883
G1 X147.205 Y135.122 E6.92086
G1 X146.392 Y135.516 E6.96292
G1 X145.548 Y135.836 E7.00495
G1 X144.678 Y136.081 E7.04704
G1 X143.791 Y136.247 E7.08906
G1 X142.64 Y136.345 E7.14285
G1 X142.033 Y136.358 E7.17112
G1 X84.938 Y136.357 E9.8297
G1 X84.24 Y136.348 E9.86221
G1 X83.339 Y136.297 E9.90423
G1 X82.445 Y136.165 E9.94631
G1 X81.567 Y135.956 E9.98833
G1 X80.71 Y135.669 E10.03042
G1 X79.883 Y135.308 E10.07243
G1 X79.09 Y134.875 E10.11451
G1 X78.339 Y134.374 E10.15654
G1 X77.635 Y133.808 E10.1986
G1 X76.984 Y133.182 E10.24066
G1 X76.391 Y132.501 E10.28271
G1 X75.861 Y131.77 E10.32475
G1 X75.397 Y130.995 E10.36681
G1 X75.003 Y130.182 E10.40888
G1 X74.683 Y129.338 E10.45091
G1 X74.439 Y128.468 E10.49298
G1 X74.273 Y127.58 E10.53505
G1 X74.176 Y126.425 E10.58902
G1 X74.163 Y125.816 E10.61738
G1 X74.164 Y124.678 E10.67037
G1 X74.174 Y124.014 E10.7013
G1 X74.221 Y123.176 E10.74038
G1 X74.394 Y121.474 E10.82004
G1 X74.611 Y118.92 E10.93939
G1 X74.753 Y116.392 E11.05729
G1 X74.824 Y113.853 E11.17556
G1 X74.822 Y111.309 E11.29402
G1 X74.749 Y108.758 E11.41286
G1 X74.606 Y106.264 E11.52918
G1 X74.386 Y103.691 E11.64943
G1 X74.23 Y102.236 E11.71757
G1 X74.176 Y101.435 E11.75495
G1 X74.163 Y100.828 E11.78322
G1 X74.164 Y71.679 E13.14052
G1 X74.174 Y71.014 E13.17149
G1 X74.228 Y70.112 E13.21356
G1 X74.361 Y69.219 E13.2556
G1 X74.572 Y68.341 E13.29765
G1 X74.861 Y67.485 E13.33972
G1 X75.224 Y66.658 E13.38178
G1 X75.658 Y65.867 E13.42379
G1 X76.161 Y65.116 E13.46588
G1 X76.729 Y64.414 E13.50792
G0 F6000 X76.441 Y64.136
G1 F1200 X77.068 Y63.486 E13.54998
G1 X77.776 Y62.87 E13.59368
G1 X78.565 Y62.299 E13.63903
G1 X79.341 Y61.837 E13.68108
G1 X80.187 Y61.429 E13.72481
G1 X81.098 Y61.086 E13.77014
G1 X82.002 Y60.836 E13.81382
G1 X82.93 Y60.666 E13.85775
G1 X84.077 Y60.571 E13.91134
G1 X84.693 Y60.558 E13.94003
G1 X141.808 Y60.559 E16.59954
G1 X142.523 Y60.57 E16.63284
G1 X143.46 Y60.626 E16.67655
G1 X144.353 Y60.758 E16.71858
G1 X145.301 Y60.986 E16.76398
G1 X146.157 Y61.274 E16.80604
G1 X147.049 Y61.664 E16.85137
G1 X147.841 Y62.099 E16.89344
G1 X148.621 Y62.619 E16.9371
G1 X149.38 Y63.231 E16.9825
G1 X150.03 Y63.858 E17.02455
G1 X150.668 Y64.593 E17.06987
G1 X151.218 Y65.354 E17.11359
G1 X151.68 Y66.13 E17.15564
G1 X152.103 Y67.007 E17.20098
G1 X152.432 Y67.885 E17.24464
G1 X152.683 Y68.79 E17.28837
G1 X152.854 Y69.717 E17.33227
G1 X152.949 Y70.847 E17.38507
G1 X152.963 Y71.488 E17.41492
G1 X152.962 Y100.58 E18.76957
G1 X152.951 Y101.313 E18.8037
G1 X152.903 Y102.182 E18.84423
G1 X152.73 Y103.882 E18.9238
G1 X152.513 Y106.43 E19.04287
G1 X152.373 Y108.934 E19.15965
G1 X152.302 Y111.465 E19.27755
G1 X152.304 Y113.989 E19.39508
G1 X152.377 Y116.531 E19.5135
G1 X152.519 Y119.018 E19.62949
G1 X152.736 Y121.564 E19.74847
G1 X152.894 Y123.041 E19.81764
G1 X152.948 Y123.84 E19.85493
G1 X152.963 Y124.49 E19.8852
G1 X152.952 Y126.298 E19.96939
G1 X152.898 Y127.235 E20.0131
G1 X152.767 Y128.129 E20.05517
G1 X152.551 Y129.042 E20.09886
G1 X152.243 Y129.966 E20.14421
G1 X151.882 Y130.794 E20.18627
G1 X151.416 Y131.648 E20.23157
G1 X150.894 Y132.429 E20.27531
G1 X150.328 Y133.133 E20.31737
G1 X149.68 Y133.81 E20.36101
G1 X148.945 Y134.451 E20.40642
G1 X148.214 Y134.982 E20.44849
G1 X147.411 Y135.465 E20.49213
G1 X146.534 Y135.89 E20.53751
G1 X145.69 Y136.21 E20.57954
G1 X144.752 Y136.474 E20.62491
G1 X143.825 Y136.646 E20.66881
G1 X142.674 Y136.744 E20.7226
G1 X142.033 Y136.758 E20.75246
G1 X84.933 Y136.757 E23.41127
G1 X84.217 Y136.747 E23.44462
G1 X83.281 Y136.693 E23.48827
G1 X82.387 Y136.561 E23.53035
G1 X81.474 Y136.345 E23.57404
G1 X80.55 Y136.036 E23.61941
G1 X79.723 Y135.675 E23.66142
G1 X78.868 Y135.208 E23.70679
G1 X78.088 Y134.686 E23.75049
G1 X77.384 Y134.12 E23.79255
G1 X76.682 Y133.445 E23.8379
G1 X76.089 Y132.764 E23.87995
G1 X75.537 Y132.005 E23.92365
G1 X75.037 Y131.169 E23.96901
G1 X74.629 Y130.324 E24.0127
G1 X74.309 Y129.48 E24.05473
G1 X74.046 Y128.542 E24.10009
G1 X73.874 Y127.613 E24.14408
G1 X73.776 Y126.434 E24.19917
G1 X73.763 Y125.816 E24.22796
G1 X73.764 Y124.672 E24.28123
G1 X73.775 Y123.992 E24.31289
G1 X73.823 Y123.136 E24.35281
G1 X73.996 Y121.434 E24.43248
G1 X74.213 Y118.886 E24.55155
G1 X74.353 Y116.381 E24.66838
G1 X74.424 Y113.842 E24.78665
G1 X74.422 Y111.309 E24.9046
G1 X74.349 Y108.769 E25.02292
G1 X74.207 Y106.298 E25.13817
G1 X73.987 Y103.725 E25.25841
G1 X73.831 Y102.263 E25.32688
G1 X73.776 Y101.444 E25.3651
G1 X73.763 Y100.828 E25.39379
G1 X73.764 Y71.673 E26.75137
G1 X73.775 Y70.99 E26.78318
G1 X73.832 Y70.053 E26.82689
G1 X73.965 Y69.16 E26.86893
G1 X74.193 Y68.213 E26.91428
G1 X74.482 Y67.357 E26.95635
G1 X74.873 Y66.466 E27.00166
G1 X75.307 Y65.675 E27.04367
G1 X75.85 Y64.864 E27.08912
G1 X76.441 Y64.136 E27.13278
G0 F6000 X76.153 Y63.858
G1 F1200 X76.805 Y63.184 E27.17645
G1 X77.513 Y62.568 E27.22015
G1 X78.36 Y61.955 E27.26883
G1 X79.136 Y61.493 E27.31089
G1 X80.046 Y61.055 E27.35791
G1 X80.991 Y60.7 E27.40492
G1 X81.895 Y60.45 E27.44859
G1 X82.897 Y60.267 E27.49602
G1 X84.044 Y60.172 E27.54961
G1 X84.693 Y60.158 E27.57984
G1 X141.814 Y60.159 E30.23963
G1 X142.547 Y60.171 E30.27377
G1 X143.518 Y60.23 E30.31907
G1 X144.447 Y60.369 E30.36281
G1 X145.395 Y60.597 E30.40821
G1 X146.317 Y60.907 E30.4535
G1 X147.242 Y61.313 E30.50054
G1 X148.034 Y61.748 E30.54261
G1 X148.843 Y62.286 E30.58785
G1 X149.658 Y62.943 E30.6366
G1 X150.308 Y63.57 E30.67865
G1 X150.97 Y64.331 E30.72562
G1 X151.562 Y65.149 E30.77264
G1 X152.024 Y65.925 E30.81469
G1 X152.478 Y66.867 E30.86338
G1 X152.807 Y67.745 E30.90704
G1 X153.076 Y68.717 E30.954
G1 X153.253 Y69.683 E30.99973
G1 X153.348 Y70.813 E31.05254
G1 X153.363 Y71.488 E31.08397
G1 X153.362 Y100.586 E32.4389
G1 X153.35 Y101.335 E32.47378
G1 X153.301 Y102.222 E32.51515
G1 X153.128 Y103.922 E32.59471
G1 X152.911 Y106.464 E32.71351
G1 X152.773 Y108.945 E32.82922
G1 X152.702 Y111.476 E32.94712
G1 X152.704 Y113.989 E33.06413
G1 X152.777 Y116.52 E33.18203
G1 X152.918 Y118.984 E33.29696
G1 X153.134 Y121.521 E33.41552
G1 X153.293 Y123.014 E33.48543
G1 X153.348 Y123.831 E33.52356
G1 X153.363 Y124.492 E33.55435
G1 X153.351 Y126.321 E33.63951
G1 X153.294 Y127.293 E33.68485
G1 X153.163 Y128.187 E33.72693
G1 X152.94 Y129.134 E33.77223
G1 X152.61 Y130.126 E33.82091
G1 X152.249 Y130.954 E33.86297
G1 X151.749 Y131.87 E33.91156
G1 X151.206 Y132.68 E33.95697
G1 X150.64 Y133.384 E33.99903
G1 X149.969 Y134.087 E34.04428
G1 X149.18 Y134.775 E34.09303
G1 X148.449 Y135.306 E34.1351
G1 X147.617 Y135.808 E34.18035
G1 X146.676 Y136.264 E34.22904
G1 X145.832 Y136.584 E34.27107
G1 X144.86 Y136.859 E34.3181
G1 X143.859 Y137.045 E34.36551
G1 X142.708 Y137.143 E34.4193
G1 X142.033 Y137.158 E34.45074
G1 X84.927 Y137.157 E37.10984
G1 X84.194 Y137.146 E37.14397
G1 X83.223 Y137.089 E37.18926
G1 X82.329 Y136.957 E37.23134
G1 X81.347 Y136.724 E37.27834
G1 X80.39 Y136.403 E37.32534
G1 X79.563 Y136.042 E37.36736
G1 X78.676 Y135.559 E37.41439
G1 X77.837 Y134.998 E37.46138
G1 X77.133 Y134.432 E37.50344
G1 X76.38 Y133.708 E37.55209
G1 X75.787 Y133.027 E37.59413
G1 X75.194 Y132.21 E37.64114
G1 X74.677 Y131.343 E37.68814
G1 X74.255 Y130.466 E37.73346
G1 X73.935 Y129.622 E37.77549
G1 X73.661 Y128.65 E37.82252
G1 X73.475 Y127.646 E37.87006
G1 X73.377 Y126.467 E37.92515
G1 X73.363 Y125.816 E37.95547
G1 X73.364 Y124.666 E38.00902
G1 X73.376 Y123.97 E38.04143
G1 X73.425 Y123.096 E38.0822
G1 X73.598 Y121.394 E38.16186
G1 X73.815 Y118.852 E38.28065
G1 X73.953 Y116.37 E38.3964
G1 X74.024 Y113.831 E38.51468
G1 X74.022 Y111.309 E38.63211
G1 X73.949 Y108.78 E38.74992
G1 X73.808 Y106.332 E38.8641
G1 X73.588 Y103.759 E38.98435
G1 X73.432 Y102.29 E39.05313
G1 X73.376 Y101.452 E39.09224
G1 X73.363 Y100.828 E39.1213
G1 X73.364 Y71.667 E40.47916
G1 X73.376 Y70.966 E40.51181
G1 X73.436 Y69.994 E40.55715
G1 X73.569 Y69.101 E40.5992
G1 X73.804 Y68.119 E40.64621
G1 X74.103 Y67.229 E40.68993
G1 X74.522 Y66.274 E40.73849
G1 X74.956 Y65.483 E40.7805
G1 X75.539 Y64.612 E40.82931
G1 X76.153 Y63.858 E40.87459
G1 F2700 E35.87459
;MESH:pico-enclosure v2.3mf
G0 F6000 X97.963 Y75.258
G0 X115.969 Y79.457
G0 X116.476 Y79.466
G0 X116.363 Y79.295
;TYPE:WALL-INNER
G1 F2700 E40.87459
G1 F1008.4 X98.307 Y79.295 E41.87509
G1 F1093.4 X97.988 Y79.128 E41.89349
G1 F1200 X97.854 Y78.978 E41.90286
G1 X97.767 Y78.733 E41.91497
G1 X97.763 Y75.579 E42.06183
G1 X97.882 Y75.297 E42.07608
G1 X98.003 Y75.178 E42.08398
G1 X98.289 Y75.058 E42.09843
G1 X116.363 Y75.058 E42.94003
G1 X116.558 Y75.09 E42.94923
G1 X116.723 Y75.178 E42.95794
G1 X116.863 Y75.325 E42.96739
G1 X116.933 Y75.468 E42.9748
G1 X116.963 Y75.658 E42.98376
G1 X116.963 Y78.742 E43.12736
G1 X116.869 Y78.981 E43.13932
G1 X116.734 Y79.131 E43.14872
G1 F1098.4 X116.363 Y79.295 E43.16935
G0 F6000 X116.328 Y79.626
G0 X116.791 Y79.98
G0 X116.791 Y83.836
G0 X116.63 Y83.946
G1 F1200 X116.363 Y84.008 E43.18212
G1 X98.31 Y84.007 E44.02274
G1 X98.071 Y83.933 E44.03439
G1 X97.916 Y83.81 E44.04361
G1 X97.815 Y83.655 E44.05222
G1 X97.765 Y83.462 E44.0615
G1 X97.768 Y80.325 E44.20758
G1 X97.854 Y80.088 E44.21931
G1 X97.988 Y79.938 E44.22868
G1 F1093.4 X98.307 Y79.771 E44.24708
G1 F1008.4 X116.363 Y79.771 E45.24759
G1 F1098.4 X116.734 Y79.935 E45.26822
G1 F1200 X116.869 Y80.085 E45.27762
G1 X116.963 Y80.408 E45.29329
G1 X116.963 Y83.485 E45.43656
G1 X116.914 Y83.648 E45.44449
G1 X116.786 Y83.835 E45.45504
G1 X116.63 Y83.946 E45.46396
G1 F2700 E40.46396
G0 F6000 X116.361 Y84.189
G0 X116.361 Y85.127
G0 X116.696 Y89.408
G1 F2700 E45.46396
G1 F1200 X116.363 Y89.508 E45.48015
G1 X98.31 Y89.507 E46.32077
G1 X98.02 Y89.401 E46.33515
G1 X97.875 Y89.259 E46.3446
G1 X97.763 Y89.013 E46.35718
G1 X97.765 Y85.854 E46.50428
G1 X97.815 Y85.661 E46.51356
G1 X97.916 Y85.506 E46.52218
G1 X98.071 Y85.383 E46.53139
G1 X98.31 Y85.309 E46.54304
G1 X116.363 Y85.308 E47.38367
G1 X116.63 Y85.37 E47.39643
G1 X116.786 Y85.481 E47.40534
G1 X116.914 Y85.668 E47.4159
G1 X116.963 Y85.908 E47.4273
G1 X116.963 Y88.994 E47.571
G1 X116.843 Y89.268 E47.58493
G1 X116.696 Y89.408 E47.59438
G1 F2700 E42.59438
G0 F6000 X116.361 Y89.689
G0 X116.361 Y90.109
G0 X116.44 Y94.508
G1 F2700 E47.59438
G1 F1200 X98.363 Y94.508 E48.43612
G1 X98.132 Y94.462 E48.44709
G1 X97.949 Y94.343 E48.45725
G1 X97.833 Y94.191 E48.46616
G1 X97.763 Y94.002 E48.47554
G1 X97.763 Y90.829 E48.62329
G1 X97.875 Y90.557 E48.63699
G1 X98.02 Y90.415 E48.64644
G1 X98.31 Y90.309 E48.66081
G1 X116.363 Y90.308 E49.50144
G1 X116.696 Y90.408 E49.51763
G1 X116.843 Y90.548 E49.52708
G1 X116.963 Y90.908 E49.54475
G1 X116.963 Y93.91 E49.68454
G1 X116.885 Y94.205 E49.69874
G1 X116.77 Y94.35 E49.70736
G1 X116.44 Y94.508 E49.7244
G1 F2700 E44.7244
G0 F6000 X117.042 Y94.295
G0 X118.582 Y93.766
G0 X119.241 Y94.258
G1 F2700 E49.7244
G1 F1200 X119.034 Y94.161 E49.73504
G1 X118.897 Y94.037 E49.74365
G1 X118.763 Y93.742 E49.75873
G1 X118.763 Y75.658 E50.6008
G1 X118.793 Y75.468 E50.60976
G1 X118.863 Y75.325 E50.61717
G1 X119.003 Y75.178 E50.62662
G1 X119.289 Y75.058 E50.64107
G1 X135.363 Y75.058 E51.38954
G1 X135.585 Y75.1 E51.40006
G1 X135.764 Y75.21 E51.40984
G1 X135.881 Y75.354 E51.41848
G1 X135.963 Y75.55 E51.42837
G1 X135.963 Y93.766 E52.27659
G1 X135.881 Y93.962 E52.28648
G1 X135.763 Y94.106 E52.29515
G1 X135.585 Y94.217 E52.30492
G1 X135.438 Y94.258 E52.31202
G1 X119.241 Y94.258 E53.06622
G1 F2700 E48.06622
G0 F6000 X135.763 Y94.058
G0 X141.591 Y97.386
G0 X141.763 Y97.558
G1 F2700 E53.06622
G1 F1200 X141.763 Y71.758 E54.26758
G1 X84.963 Y71.758 E56.91243
G1 X84.963 Y97.558 E58.11378
G1 X141.763 Y97.558 E60.75863
G0 F6000 X142.163 Y97.958
;TYPE:WALL-OUTER
G1 F1200 X142.163 Y71.358 E61.99724
G1 X84.563 Y71.358 E64.67933
G1 X84.563 Y97.958 E65.91794
G1 X142.163 Y97.958 E68.60004
G1 F2700 E63.60004
G0 F6000 X141.893 Y97.688
G0 X141.591 Y97.386
G0 X119.364 Y94.439
G0 X119.321 Y93.858
G1 F2700 E68.60004
G1 F1200 X119.207 Y93.785 E68.60634
G1 X119.165 Y93.692 E68.61109
G1 X119.163 Y75.658 E69.45083
G1 X119.196 Y75.547 E69.45622
G1 X119.328 Y75.46 E69.46359
G1 X135.42 Y75.458 E70.2129
G1 X135.536 Y75.556 E70.21997
G1 X135.563 Y75.658 E70.22488
G1 X135.561 Y93.693 E71.06467
G1 X135.497 Y93.808 E71.07079
G1 X135.398 Y93.856 E71.07592
G1 X119.321 Y93.858 E71.82453
G1 F2700 E66.82453
G0 F6000 X119.321 Y94.158
G0 X118.582 Y93.766
G0 X117.143 Y93.766
G0 X116.499 Y94.056
G1 F2700 E71.82453
G1 F1200 X116.398 Y94.106 E71.82978
G1 X98.363 Y94.108 E72.66956
G1 X98.225 Y94.053 E72.67648
G1 X98.167 Y93.952 E72.6819
G1 X98.163 Y90.866 E72.8256
G1 X98.248 Y90.743 E72.83256
G1 X98.345 Y90.708 E72.83736
G1 X116.363 Y90.708 E73.67636
G1 X116.523 Y90.788 E73.68469
G1 X116.563 Y90.908 E73.69058
G1 X116.563 Y93.909 E73.83032
G1 X116.499 Y94.056 E73.83778
G1 F2700 E68.83778
G0 F6000 X116.499 Y94.408
G0 X116.791 Y94.336
G0 X116.791 Y90.48
G0 X116.361 Y90.127
G0 X116.361 Y89.689
G0 X116.474 Y89.075
G1 F2700 E73.83778
G1 F1200 X116.363 Y89.108 E73.84317
G1 X98.345 Y89.108 E74.68217
G1 X98.248 Y89.073 E74.68697
G1 X98.163 Y88.95 E74.69393
G1 X98.163 Y85.89 E74.83642
G1 X98.214 Y85.774 E74.84232
G1 X98.345 Y85.708 E74.84915
G1 X116.433 Y85.708 E75.6914
G1 X116.563 Y85.845 E75.7002
G1 X116.561 Y88.943 E75.84445
G1 X116.474 Y89.075 E75.85181
G1 F2700 E70.85181
G0 F6000 X116.474 Y89.408
G0 X116.791 Y89.336
G0 X116.791 Y85.48
G0 X116.361 Y85.127
G0 X116.361 Y84.189
G0 X116.504 Y83.551
G1 F2700 E75.85181
G1 F1200 X116.363 Y83.608 E75.85889
G1 X98.288 Y83.608 E76.70054
G1 X98.163 Y83.473 E76.70911
G1 X98.165 Y80.377 E76.85327
G1 X98.238 Y80.251 E76.86005
G1 X98.345 Y80.208 E76.86542
G1 X116.363 Y80.208 E77.70442
G1 X116.487 Y80.25 E77.71051
